dist/svg/log.svg

<!-- Generated by Trend Micro Style Portal -->
<svg version="1.1" xmlns="http://www.w3.org/2000/svg" width="16" height="16" viewBox="0 0 16 16">
  <title>log</title>
  <path fill="rgb(34,34,34)" d="M15 1h-14c-0.552 0.002-0.998 0.448-1 1v12c0.002 0.552 0.448 0.998 1 1h14c0.552-0.002 0.998-0.448 1-1v-12c-0.002-0.552-0.448-0.998-1-1h-0zM15 14h-14v-11h14zM6.332 13l-4.301-4.354 4.301-4.353 0.699 0.707-3.603 3.646 3.603 3.647zM9.699 13l-0.699-0.707 3.603-3.646-3.603-3.647 0.699-0.707 4.301 4.353z"></path>
</svg>

<svg width="16" height="16" viewBox="0 0 16 16" fill="rgb(34, 34, 34)" xmlns="http://www.w3.org/2000/svg"><title>log</title><path d="M15 1H1C0.448 1.002 0.002 1.448 0 2V14C0.002 14.552 0.448 14.998 1 15H15C15.552 14.998 15.998 14.552 16 14V2C15.998 1.448 15.552 1.002 15 1ZM15 14H1V3H15V14ZM6.332 13L2.031 8.646L6.332 4.293L7.031 5L3.428 8.646L7.031 12.293L6.332 13ZM9.699 13L9 12.293L12.603 8.647L9 5L9.699 4.293L14 8.646L9.699 13Z" fill="rgb(34, 34, 34)" fill-opacity="1.00"/></svg>
